src/shared/_assets/icons/setting.svg

<svg width="16" height="15" viewBox="0 0 16 15" fill="none" xmlns="http://www.w3.org/2000/svg">
<path d="M5.475 15L5.175 12.6C5.0125 12.5375 4.85938 12.4625 4.71562 12.375C4.57187 12.2875 4.43125 12.1938 4.29375 12.0938L2.0625 13.0312L0 9.46875L1.93125 8.00625C1.91875 7.91875 1.9125 7.83438 1.9125 7.75313C1.9125 7.67188 1.9125 7.5875 1.9125 7.5C1.9125 7.4125 1.9125 7.32812 1.9125 7.24687C1.9125 7.16562 1.91875 7.08125 1.93125 6.99375L0 5.53125L2.0625 1.96875L4.29375 2.90625C4.43125 2.80625 4.575 2.7125 4.725 2.625C4.875 2.5375 5.025 2.4625 5.175 2.4L5.475 0H9.6L9.9 2.4C10.0625 2.4625 10.2156 2.5375 10.3594 2.625C10.5031 2.7125 10.6438 2.80625 10.7812 2.90625L13.0125 1.96875L15.075 5.53125L13.1438 6.99375C13.1562 7.08125 13.1625 7.16562 13.1625 7.24687C13.1625 7.32812 13.1625 7.4125 13.1625 7.5C13.1625 7.5875 13.1625 7.67188 13.1625 7.75313C13.1625 7.83438 13.15 7.91875 13.125 8.00625L15.0562 9.46875L12.9937 13.0312L10.7812 12.0938C10.6438 12.1938 10.5 12.2875 10.35 12.375C10.2 12.4625 10.05 12.5375 9.9 12.6L9.6 15H5.475ZM6.7875 13.5H8.26875L8.53125 11.5125C8.91875 11.4125 9.27812 11.2656 9.60938 11.0719C9.94063 10.8781 10.2438 10.6437 10.5188 10.3687L12.375 11.1375L13.1062 9.8625L11.4937 8.64375C11.5562 8.46875 11.6 8.28438 11.625 8.09062C11.65 7.89687 11.6625 7.7 11.6625 7.5C11.6625 7.3 11.65 7.10313 11.625 6.90938C11.6 6.71563 11.5562 6.53125 11.4937 6.35625L13.1062 5.1375L12.375 3.8625L10.5188 4.65C10.2438 4.3625 9.94063 4.12187 9.60938 3.92812C9.27812 3.73438 8.91875 3.5875 8.53125 3.4875L8.2875 1.5H6.80625L6.54375 3.4875C6.15625 3.5875 5.79688 3.73438 5.46562 3.92812C5.13437 4.12187 4.83125 4.35625 4.55625 4.63125L2.7 3.8625L1.96875 5.1375L3.58125 6.3375C3.51875 6.525 3.475 6.7125 3.45 6.9C3.425 7.0875 3.4125 7.2875 3.4125 7.5C3.4125 7.7 3.425 7.89375 3.45 8.08125C3.475 8.26875 3.51875 8.45625 3.58125 8.64375L1.96875 9.8625L2.7 11.1375L4.55625 10.35C4.83125 10.6375 5.13437 10.8781 5.46562 11.0719C5.79688 11.2656 6.15625 11.4125 6.54375 11.5125L6.7875 13.5ZM7.575 10.125C8.3 10.125 8.91875 9.86875 9.43125 9.35625C9.94375 8.84375 10.2 8.225 10.2 7.5C10.2 6.775 9.94375 6.15625 9.43125 5.64375C8.91875 5.13125 8.3 4.875 7.575 4.875C6.8375 4.875 6.21562 5.13125 5.70937 5.64375C5.20312 6.15625 4.95 6.775 4.95 7.5C4.95 8.225 5.20312 8.84375 5.70937 9.35625C6.21562 9.86875 6.8375 10.125 7.575 10.125Z" fill="#A1A1A1"/>
</svg>

<svg xmlns="http://www.w3.org/2000/svg" fill="none" viewBox="0 0 16 15"><path fill="currentColor" d="m5.475 15-.3-2.4a3 3 0 0 1-.46-.225 6 6 0 0 1-.421-.281l-2.231.937L0 9.47l1.931-1.463a2 2 0 0 1-.018-.253v-.506q0-.122.018-.253L0 5.53l2.063-3.56 2.23.937q.207-.15.432-.281t.45-.225l.3-2.4H9.6l.3 2.4q.244.095.46.225.215.13.421.281l2.231-.937 2.063 3.562-1.931 1.463q.018.131.018.253v.506a1 1 0 0 1-.037.253l1.931 1.463-2.062 3.562-2.213-.937q-.206.15-.431.281t-.45.225L9.6 15zm1.313-1.5h1.48l.263-1.988q.582-.15 1.078-.44.498-.29.91-.703l1.856.768.731-1.274-1.612-1.22q.093-.262.131-.552a4.6 4.6 0 0 0 0-1.182 2.7 2.7 0 0 0-.131-.553l1.612-1.218-.731-1.275-1.856.787a4.2 4.2 0 0 0-.91-.722 4.2 4.2 0 0 0-1.078-.44L8.287 1.5h-1.48l-.263 1.987q-.582.15-1.078.441a4.5 4.5 0 0 0-.91.703L2.7 3.862l-.731 1.276 1.612 1.2a3 3 0 0 0-.131.562 4.6 4.6 0 0 0 0 1.181q.038.282.131.563L1.97 9.863l.731 1.274 1.856-.787q.412.43.91.722.496.29 1.078.44zm.787-3.375a2.53 2.53 0 0 0 1.856-.769A2.53 2.53 0 0 0 10.2 7.5a2.53 2.53 0 0 0-.769-1.856 2.53 2.53 0 0 0-1.856-.769q-1.106 0-1.866.769A2.55 2.55 0 0 0 4.95 7.5q0 1.088.76 1.856.76.77 1.865.769"/></svg>
